icon-svg/aqara-camera-g5.svg

<svg xmlns="http://www.w3.org/2000/svg" viewBox="0 0 24 24"><path fill="#44739e" d="M13.707 3.993a1.51 1.51 0 0 0-1.327 1.64 1.51 1.51 0 0 0 1.327 1.639 1.51 1.51 0 0 0 1.325-1.639 1.51 1.51 0 0 0-1.325-1.64m0 2.049a.377.377 0 0 1-.332-.409.339.339 0 1 1 .663 0 .376.376 0 0 1-.331.409m3.82 3.974a1.67 1.67 0 0 0 1.459-1.818 1.67 1.67 0 0 0-1.459-1.818 1.67 1.67 0 0 0-1.46 1.818 1.67 1.67 0 0 0 1.46 1.818m0-3.34a1.4 1.4 0 0 1 1.231 1.522 1.4 1.4 0 0 1-1.231 1.522 1.4 1.4 0 0 1-1.228-1.522 1.4 1.4 0 0 1 1.228-1.522M12.27 10.67a1.59 1.59 0 0 0 1.386 1.727 1.59 1.59 0 0 0 1.385-1.731 1.59 1.59 0 0 0-1.385-1.728 1.59 1.59 0 0 0-1.386 1.732m7.119 2.687a3.15 3.15 0 0 0 .937-2.291l-.071-6.191a2.804 2.804 0 0 0-2.799-2.761H12.81a2.69 2.69 0 0 0-2.688 2.724l.085 6.474a2.926 2.926 0 0 0 2.89 2.9l3.999.067a3.16 3.16 0 0 0 2.293-.922m-4.167-7.724a1.724 1.724 0 0 1-1.515 1.872 1.723 1.723 0 0 1-1.516-1.872 1.723 1.723 0 0 1 1.516-1.873 1.724 1.724 0 0 1 1.515 1.873m-3.117 5.037a1.753 1.753 0 0 1 1.551-1.9 1.754 1.754 0 0 1 1.55 1.9 1.754 1.754 0 0 1-1.55 1.899 1.753 1.753 0 0 1-1.551-1.899m3.838-2.472a1.793 1.793 0 0 1 1.584-1.942 1.794 1.794 0 0 1 1.583 1.942 1.793 1.793 0 0 1-1.583 1.943 1.793 1.793 0 0 1-1.584-1.943m-5.113 5.384a3.25 3.25 0 0 1-.953-2.265l-.086-6.475A3.03 3.03 0 0 1 11.684 2l-5.882.339a3.13 3.13 0 0 0-2.127 3.04l.092 5.918a2.88 2.88 0 0 0 2.779 2.838c1.899.066 3.793.227 5.688.276a3.25 3.25 0 0 1-1.404-.829m2.261.962a3 3 0 0 1-.245-.014c-1.236-.015-2.472-.086-3.68-.156l-.307-.018 1.621 1.84h.635a1 1 0 0 0 .112 0l3.824-.111c.531-.042.679-.376.679-.854a.8.8 0 0 0-.2-.641Zm2.398 3.032-1.33-1.376h-1.706l1.349 1.438Zm-6.72-2.973a.7.7 0 0 0-.526-.233h-.889a.562.562 0 0 0-.542.718 2.5 2.5 0 0 0 .526.966l2.807 3.27a3 3 0 0 0 .379.391l.052.047a1.8 1.8 0 0 0 .836.489h.012l1.036-.071v-.365a2.74 2.74 0 0 0-.308-1.221l-.265-.507 4.15-.208.018.014a1.72 1.72 0 0 1 .686 1.309l.028.7.17-.013.2-.039a.764.764 0 0 0 .453-.825v-.017a1.8 1.8 0 0 0-.151-.482v-.007a1.7 1.7 0 0 0-.306-.436l-1.836-1.87-.835.027 1.364 1.485-4.056.2Zm7.792 4.692a1.6 1.6 0 0 0-.375-1.034l-.073-.086-3.82.193.117.211a2.2 2.2 0 0 1 .284 1.088v.508l3.867-.247Zm-3.993.3a2 2 0 0 0-.022-.239h-.011q.021.116.033.239m4.611.373-.023.009-.208.04-.263.02v.007l-4.115.263V20.3l-1.158.079-.031-.008a1.9 1.9 0 0 1-.892-.52l-.049-.045a3 3 0 0 1-.317-.318l-4.745.263a.084.084 0 0 0-.026.161h.021l4.471.512.167.019a8 8 0 0 0 .938.049q.238-.001.476-.019l6.625-.438a3 3 0 0 0 .278-.04h.022a.7.7 0 0 0 .228-.074l.105-.052h.009c.034-.029-.183-.06-.227-.065l-.943-.094a.9.9 0 0 1-.343.258m1.385 1.069v-.942a.9.9 0 0 1-.399.085l-.088.005-6.927.468a6 6 0 0 1-1.121-.034l-4.568-.569v.988l4.44.557a8 8 0 0 0 1.545.046l6.983-.457a.15.15 0 0 0 .135-.147m-7.113.772a8 8 0 0 1-.538.018 8 8 0 0 1-1.037-.065l-4.421-.559c-.176.055-.234.15 0 .2l4.313.499a7.2 7.2 0 0 0 1.653.082l6.964-.45c.245-.021.328-.152.215-.232a.3.3 0 0 1-.162.059Zm1.084-2.454h.011a2.1 2.1 0 0 0-.2-.637 3 3 0 0 1 .189.637m-1.586 1.14a8 8 0 0 1-.938-.049l-.167-.019.207.026a6 6 0 0 0 .898.042M18.328 20h.022Zm-2.329-1.992-3.912.2.027.05 3.941-.199Z"/></svg>

<?xml version="1.0" encoding="UTF-8"?>
<svg width="24px" fill="#44739e" height="24px" viewBox="0 0 24 24" version="1.1" xmlns="http://www.w3.org/2000/svg" xmlns:xlink="http://www.w3.org/1999/xlink">
            <path d="m 13.707,3.994 a 1.508,1.508 0 0 0 -1.327,1.64 1.508,1.508 0 0 0 1.327,1.639 1.508,1.508 0 0 0 1.326,-1.639 1.508,1.508 0 0 0 -1.326,-1.64 z m 0,2.049 a 0.377,0.377 0 0 1 -0.332,-0.409 0.339,0.339 0 1 1 0.663,0 0.376,0.376 0 0 1 -0.331,0.409 z m 3.821,3.975 a 1.671,1.671 0 0 0 1.46,-1.818 1.671,1.671 0 0 0 -1.46,-1.819 1.671,1.671 0 0 0 -1.46,1.819 1.671,1.671 0 0 0 1.46,1.818 z m 0,-3.341 A 1.4,1.4 0 0 1 18.76,8.2 1.4,1.4 0 0 1 17.528,9.722 1.4,1.4 0 0 1 16.3,8.2 1.4,1.4 0 0 1 17.528,6.677 Z M 12.27,10.672 A 1.59,1.59 0 0 0 13.656,12.4 1.59,1.59 0 0 0 15.042,10.668 1.59,1.59 0 0 0 13.656,8.94 1.59,1.59 0 0 0 12.27,10.672 Z m 7.121,2.688 a 3.152,3.152 0 0 0 0.937,-2.291 L 20.257,4.876 a 2.805,2.805 0 0 0 -2.8,-2.762 H 12.81 a 2.689,2.689 0 0 0 -2.689,2.725 l 0.085,6.476 a 2.927,2.927 0 0 0 2.891,2.9 l 4,0.067 A 3.155,3.155 0 0 0 19.391,13.36 Z M 15.223,5.634 A 1.724,1.724 0 0 1 13.707,7.507 1.723,1.723 0 0 1 12.191,5.634 1.723,1.723 0 0 1 13.707,3.76 1.724,1.724 0 0 1 15.223,5.634 Z m -3.118,5.038 a 1.753,1.753 0 0 1 1.551,-1.9 1.754,1.754 0 0 1 1.551,1.9 1.754,1.754 0 0 1 -1.551,1.9 1.753,1.753 0 0 1 -1.551,-1.9 z M 15.944,8.2 A 1.793,1.793 0 0 1 17.528,6.257 1.794,1.794 0 0 1 19.112,8.2 1.793,1.793 0 0 1 17.528,10.143 1.793,1.793 0 0 1 15.944,8.2 Z m -5.115,5.385 A 3.254,3.254 0 0 1 9.876,11.32 L 9.79,4.843 A 3.027,3.027 0 0 1 11.684,2 L 5.8,2.339 A 3.126,3.126 0 0 0 3.672,5.38 l 0.092,5.92 a 2.883,2.883 0 0 0 2.78,2.838 c 1.9,0.066 3.794,0.227 5.69,0.276 a 3.252,3.252 0 0 1 -1.405,-0.829 z m 2.262,0.962 c -0.082,0 -0.164,-0.007 -0.245,-0.014 C 11.61,14.518 10.373,14.447 9.165,14.377 L 8.858,14.359 10.479,16.2 h 0.635 a 1.022,1.022 0 0 0 0.113,0 l 3.825,-0.111 v 0 c 0.531,-0.042 0.679,-0.376 0.679,-0.854 v 0 a 0.8,0.8 0 0 0 -0.2,-0.642 z m 2.399,3.033 -1.331,-1.376 h -1.706 l 1.349,1.438 z M 8.768,14.606 A 0.711,0.711 0 0 0 8.242,14.373 h -0.89 a 0.562,0.562 0 0 0 -0.542,0.719 2.534,2.534 0 0 0 0.526,0.966 l 2.808,3.271 a 3.045,3.045 0 0 0 0.379,0.391 l 0.052,0.047 a 1.784,1.784 0 0 0 0.837,0.489 h 0.012 L 12.46,20.185 V 19.82 a 2.737,2.737 0 0 0 -0.308,-1.221 l -0.265,-0.508 4.151,-0.208 0.018,0.014 a 1.721,1.721 0 0 1 0.686,1.31 l 0.028,0.7 0.17,-0.013 0.2,-0.039 a 0.764,0.764 0 0 0 0.453,-0.825 v -0.017 a 1.745,1.745 0 0 0 -0.151,-0.482 v -0.007 a 1.67,1.67 0 0 0 -0.306,-0.437 l -1.836,-1.87 -0.836,0.027 1.365,1.485 -4.057,0.2 z m 7.794,4.694 a 1.612,1.612 0 0 0 -0.375,-1.034 l -0.073,-0.087 -3.821,0.194 0.117,0.211 a 2.23,2.23 0 0 1 0.284,1.088 v 0.508 l 3.868,-0.247 z m -3.994,0.3 a 2.384,2.384 0 0 0 -0.022,-0.239 h -0.011 c 0.014,0.078 0.025,0.157 0.033,0.239 z m 4.612,0.373 -0.023,0.009 -0.208,0.04 -0.263,0.02 v 0.007 l -4.116,0.263 v -0.007 l -1.158,0.079 -0.031,-0.008 a 1.919,1.919 0 0 1 -0.893,-0.52 L 10.439,19.811 A 2.842,2.842 0 0 1 10.122,19.493 L 5.376,19.756 A 0.084,0.084 0 0 0 5.35,19.917 h 0.021 l 4.472,0.512 0.167,0.019 a 7.538,7.538 0 0 0 0.938,0.049 c 0.159,0 0.318,-0.008 0.477,-0.019 L 18.051,20.04 A 2.667,2.667 0 0 0 18.329,20 h 0.022 a 0.694,0.694 0 0 0 0.229,-0.074 l 0.105,-0.052 h 0.009 c 0.034,-0.029 -0.183,-0.06 -0.227,-0.065 l -0.944,-0.094 a 0.885,0.885 0 0 1 -0.343,0.258 z m 1.386,1.069 V 20.1 a 0.908,0.908 0 0 1 -0.4,0.085 l -0.088,0.005 -6.929,0.468 A 6,6 0 0 1 10.028,20.624 L 5.459,20.055 v 0.988 L 9.9,21.6 a 8.154,8.154 0 0 0 1.546,0.046 l 6.985,-0.457 a 0.151,0.151 0 0 0 0.135,-0.147 z m -7.115,0.772 c -0.179,0.012 -0.359,0.018 -0.539,0.018 A 8.345,8.345 0 0 1 9.875,21.767 L 5.453,21.208 c -0.176,0.055 -0.234,0.15 0,0.2 l 4.314,0.5 a 7.163,7.163 0 0 0 1.654,0.082 l 6.966,-0.451 c 0.245,-0.021 0.328,-0.152 0.215,-0.232 a 0.315,0.315 0 0 1 -0.162,0.059 z m 1.084,-2.454 h 0.011 a 2.109,2.109 0 0 0 -0.2,-0.637 2.847,2.847 0 0 1 0.189,0.637 z M 10.948,20.5 A 7.538,7.538 0 0 1 10.01,20.451 l -0.167,-0.019 0.207,0.026 a 5.854,5.854 0 0 0 0.898,0.042 z m 7.381,-0.495 h 0.022 z M 16,18.012 l -3.913,0.2 0.027,0.051 3.942,-0.2 z"/>

</svg>
